X:1
T:Title
%%score { 1 | 2 }
L:1/8
Q:1/4=112
M:4/4
K:D
V:1 treble nm="Grand Piano"
V:2 bass 
V:1
 [FA]2 [DF]2 [DF]2 [EG]2 | [GB]2 [GB]2 [FA]4 | [Fd]2 [FA]2 [FA]2 [DF]2 | [DF]2 [CE]2 [CE]4 | %4
w: J.~D.~Vinton * * *||||
 [FA]2 [DF]2 [DF]2 [EG]2 | [GB]2 [GB]2 [FA]4 | [GB]2 [GB]2 [FA]2 [DF]2 | [DF]2 [CE]2 D4 | %8
w: ||||
 F2 F2 F2 D2 | E2 F2 [FA]4 | [GB]2 [GB]2 [Fd]2 [FA]2 | F2 D2 E4 | [FA]2 [DF]2 [DF]2 [EG]2 | %13
w: |||||
 [GB]2 [GB]2 [FA]4 | [GB]2 [Gd]2 [DFA]2 [A,DF]2 | [A,DF]2[K:bass] [G,CE]2 [F,D]4 |] %16
w: |||
V:2
 D,2 D,2 D,2 D,2 | D,2 D,2 D,4 | D,2 D,2 D,2 F,2 | A,2 A,2 A,4 | D,2 D,2 D,2 D,2 | D,2 D,2 D,4 | %6
 G,2 B,2 D2 D,2 | A,2 A,,2 D,4 | [D,A,D]2 [D,A,D]2 [D,A,D]2 [F,A,]2 | [A,C]2 [D,A,D]2 [D,D]4 | %10
 [G,D]2 [G,D]2 [D,D]2 [D,D]2 | [D,A,D]2 [F,A,]2 [A,C]4 | [D,A,]2 [D,A,]2 [D,A,]2 [D,A,]2 | %13
 [D,D]2 [D,D]2 [D,D]4 | [G,D]2 [G,B,]2 D,2 D,2 | A,,2 A,,2 D,4 |] %16

